X: 763
T: Fesleğen Ektim Gül Bitti
C: Tanburî Mustafa Çavuş
O: Turkey
F: http://compmusic.upf.edu/node/140
N: isfahan--turku--aksak--feslegen_ektim--tanburi_mustafa_cavus
N: makam= isfahan
N: form= turku
N: usul= aksak = 9/8
M: 9/8
L: 1/16
K: C _2/4B   
Q: 1/4=204
%%MIDI tuningsystem comma53
A3B c2d2 e2f2 e2d2 c2 | d12a2 g2f2  | \
w:  ARANAĞME  |   | 
e3d c2d2 c2d2 e4 ed | 
w:   | 
d12c2 d2e2  | c12 B2c2 d2 | B12A2 B2c2  | \
w:   |   |   | 
B3A G2e2 d2cB dcB2 BA | 
w:   | 
A8A2 Bcdc BAG2  | A3B c2d2 e2f2 e2d2 c2 | \
w:   |  ARANAĞME  | 
d12a2 g2f2  | 
w:   | 
e3d c2d2 c2d2 e4 ed | d12c2 d2e2  | c12 B2c2 d2 | \
w:   |   |   | 
B12A2 B2c2  | 
w:   | 
B3A G2e2 d2cB dcB2 BA | A6 efed d^cd3ece  | 
w:   |   | 
d4 =B2^c2 d4 efef ed | d4ag feed cBcd c2d2  | 
w:  *  Fes le ğen  ek  |  tim  gül  *  *  *  bit *  *  *  ti    | 
dc2B =B2^c2 d4 efef ed | d4ag feed cBcd c2d2  | 
w:  *  *  *  Fes le ğen  ek  |  tim  gül  *  *  *  bit *  *  *  ti    | 
dc2B d2d2 d4 A6 | z2 g2^3/4f2 g2=fe d2e2 {f}efed  | \
w:  *  *  *  Da lın da  bül  |  bül *  *  ler  *  *  öt  | 
d2ef agfe eddc defg eg | 
w:  tü   SAZ  | 
f4f2 f2f2 e2a2 g2f2  | e3d d2ef edcB cdc2 d2 | 
w:  *  Öt me  bül *  bül   |  *  *  yâ rim  *  git *  *  *  ti    | 
{e}dc2Bf2 f2f2 e2a2 g2f2  | e3d d2ef edcB cdc2 d2 | 
w:  *  *  *  *  Öt me  bül *  bül   |  *  *  yâ rim  *  git *  *  *  ti    | 
dc2Bd8A4g2  | {g}^3/4f3d e2ed d^c=Bc d4 ce | \
w:  *  *  *  Ben  dert li  |  *  yim  *  *  a *  man  *  *  a man   SAZ  | 
d4d2 e2f2 e2a2 g2f2  | 
w:  *  Ben  dert li *  yim   | 
e3d d2ef edcB cdc2 d2 | dc2Bf2 f2f2 e2a2 g2f2  | 
w:  *  *  kan  ağ *  la *  *  *  rım    |  *  *  *  Ben  dert li *  yim   | 
e3d d2ef edcB cdc2 d2 | dc2Bd2 d2d4A6  | \
w:  *  *  kan  ağ *  la *  *  *  rım    |  *  *  *  Ka re ler  bağ  | 
^3/4f2g2 a2_ba agg=f feed dc | 
w:  lar   | 
cB fed2 dcc2 B2dc B2BA  | A6ef edcB A6 | 
w:  *  *  bağ *  *  lar  *  ağ *  *  *  *  la  |  rım   SAZ  | 
A3Bc2 d2e2 f2e2 d2c2  | d12 a2g2 f2 | \
w:  ARANAĞME  |   | 
e3dc2 d2c2 d2e4ed  | 
w:   | 
d12 c2d2 e2 | c12B2 c2d2  | B12 A2B2 c2 | \
w:   |   |   | 
B3AG2 e2d2 cBdc B2BA  | 
w:   | 
A8 A2Bc dcBA G2 | A3Bc2 d2e2 f2e2 d2c2  | \
w:   |  ARANAĞME  | 
d12 a2g2 f2 | 
w:   | 
e3dc2 d2c2 d2e4ed  | d12 c2d2 e2 | c12B2 c2d2  | \
w:   |   |   | 
B12 A2B2 c2 | 
w:   | 
B3AG2 e2d2 cBdc B2BA  | A6ef edd^c d3e ce | 
w:   |   | 
d4=B2 ^c2d4ef efed  | d4 agfe edcB cdc2 d2 | 
w:  *  Fes le ğen  ek  |  tim  gül  *  *  *  bit *  *  *  ti    | 
dc2B=B2 ^c2d4ef efed  | d4 agfe edcB cdc2 d2 | 
w:  *  *  *  Fes le ğen  ek  |  tim  gül  *  *  *  bit *  *  *  ti    | 
dc2Bd2 d2d4A6  | z2g2 ^3/4f2g2 =fed2 e2{f}ef ed | \
w:  *  *  *  Da lın da  bül  |  bül *  *  ler  *  *  öt  | 
d2 efag feed dcde fgeg  | 
w:  tü   SAZ  | 
f4 f2f2 f2e2 a2g2 f2 | e3dd2 efed cBcd c2d2  | 
w:  *  Öt me  bül *  bül   |  *  *  yâ rim  *  git *  *  *  ti    | 
{e}dc2B f2f2 f2e2 a2g2 f2 | e3dd2 efed cBcd c2d2  | 
w:  *  *  *  *  Öt me  bül *  bül   |  *  *  yâ rim  *  git *  *  *  ti    | 
dc2B d8 A4 g2 | {g}^3/4f3de2 edd^c =Bcd4ce  | \
w:  *  *  *  Ben  dert li  |  *  yim  *  *  a *  man  *  *  a man   SAZ  | 
d4 d2e2 f2e2 a2g2 f2 | 
w:  *  Ben  dert li *  yim   | 
e3dd2 efed cBcd c2d2  | dc2B f2f2 f2e2 a2g2 f2 | 
w:  *  *  kan  ağ *  la *  *  *  rım    |  *  *  *  Ben  dert li *  yim   | 
e3dd2 efed cBcd c2d2  | dc2B d2d2 d4 A6 | \
w:  *  *  kan  ağ *  la *  *  *  rım    |  *  *  *  Ka re ler  bağ  | 
^3/4f2 g2a2 _baag g=ffe eddc  | 
w:  lar   | 
cBfe d2dc c2B2 dcB2 BA | A6 efed cBA6  | 
w:  *  *  bağ *  *  lar  *  ağ *  *  *  *  la  |  rım   SAZ  | 
|


